X: 129
T:Gan Ainm Waltz
R:waltz
S:from  Mike Rafferty
H:Mike wasn't sure where he got this but felt it came from Sean McGlynn,
H:either directly, or through Billy McComisky.
M:3/4
L:1/4
Z:michael hogan
K:D
d/e/|:f A d|(f2 g/)f/|e c e|d2 d/c/|BG>B|AF A/F/|G E/A/A/F/|1 D2d/e/:|2
D2 A/B/|
|A D E|F2 G/F/|E c B|A2 A/B/|A E F|G2 c/B/|A>G B|A2 A/B/|
A D E|F2 G/F/|E c B|A2 (3A/B/c/| ddB|AF A/F/|G E/A/A/F/|1 D2A/B/:|2 D3||
